src/assets/img/Home/icons/CaseItem/efunding.svg

<svg width="30" height="30" viewBox="0 0 30 30" fill="none" xmlns="http://www.w3.org/2000/svg">
<g id="Icon">
<g id="Subtract">
<path d="M14.0625 5.66608C12.1682 4.45349 9.91558 3.75 7.5 3.75C6.07722 3.75 4.70945 3.99419 3.43758 4.44373C3.06296 4.57614 2.8125 4.93032 2.8125 5.32765V23.1401C2.8125 23.4445 2.96022 23.7299 3.2087 23.9056C3.45717 24.0813 3.77548 24.1255 4.06242 24.0241C5.13639 23.6445 6.29301 23.4375 7.5 23.4375C9.99377 23.4375 12.2791 24.3216 14.0625 25.7946V5.66608Z" fill="#CAFF33"/>
<path d="M15.9375 25.7946C17.7209 24.3216 20.0062 23.4375 22.5 23.4375C23.707 23.4375 24.8636 23.6445 25.9376 24.0241C26.2245 24.1255 26.5428 24.0813 26.7913 23.9056C27.0398 23.7299 27.1875 23.4445 27.1875 23.1401V5.32765C27.1875 4.93032 26.937 4.57614 26.5624 4.44373C25.2906 3.99419 23.9228 3.75 22.5 3.75C20.0844 3.75 17.8318 4.45349 15.9375 5.66608V25.7946Z" fill="#CAFF33"/>
</g>
</g>
</svg>

<svg xmlns="http://www.w3.org/2000/svg" width="30" height="30" fill="none"><g fill="#CAFF33"><path d="M14.063 5.666A12.134 12.134 0 0 0 7.5 3.75c-1.423 0-2.79.244-4.062.694a.938.938 0 0 0-.626.884V23.14a.937.937 0 0 0 1.25.884c1.074-.38 2.231-.587 3.438-.587 2.494 0 4.78.885 6.563 2.358V5.666ZM15.938 25.795a10.267 10.267 0 0 1 6.562-2.358c1.207 0 2.364.207 3.438.587a.938.938 0 0 0 1.25-.884V5.328a.938.938 0 0 0-.626-.884A12.169 12.169 0 0 0 22.5 3.75c-2.416 0-4.668.703-6.563 1.916v20.129Z"/></g></svg>
